X:124060
T:79th Farewell to Gibraltor
C:PM J MacDonald
H:
B:
O:Kevin Fraser
Z:Kevin Fraser
Q:1/4=90
K:Dmaj
M:2/4
L:1/16
R:March
U:V = !accent!
V:M transpose=1 name="Melody" " gstem=up stem=down " 
V:H transpose=1 name="Harmony" " gstem=up stem=down " 
V:C transpose=1 name="C-Harmony" " gstem=up stem=down " 
V:S gstem=up stem=down dyn=up stafflines=1 clef=perc middle=G name="Snare" sname="Snare"" sname=snare
V:B clef=none name="Bass" " gstem=up stem=down dyn=up " 
V:T clef=none name="Tenor" " gstem=up stem=down dyn=up " 
V:BB clef=bass octave=-2 transpose=0 name="Brass Bass" sname="Bass"
V:BC clef=treble transpose=0 name="Brass Chord" sname="Chord 1" 
V:BD clef=treble transpose=0 name="Brass Chord 2" sname="Chord 2" 
% I:MIDI=program 110
I:MIDI=program 3
%%MIDI gracedivider 4
%%Score {M H BC BD BB }
[V:M][|:{g} c>d | {g}e2>f2 {gef} e2c2 |{g}A4 {GdGe}A2a2 | {gfg}f2{g}e>c {g}e>f{g}e>d | {gcd}c2{g}B2 {GdGe}B2{g}c>d |
[V:M]          | {g}e2>f2 {gef} e2c2 |{g}A4 {GdGe}A2a2 | {gfg}f2{g}e>c {g}e>fa>e    |{gcd}c2{e}A2  {GAG}A2    :|]
[V:M][|: a2 | {gfg}f2{g}e>c {g}e>fa>e | {g}f<ae>c {gBd}B2a2 | {gfg}f2{g}e>c {g}e>fa>e | {gfg}f2{g}B2 {GdGe}B2a2 |
[V:M]       | {gfg}f2{g}e>c {g}e>fa>e | {g}f<ae>c {gBd}B2a2 | {gfg}f2{g}e>c {g}e>fa>e    |{gcd}c2{e}A2  {GAG}A2    :|]
[V:M][|:{gcd}c>B | {g}A2>B2 {GdG}c2a2 | {gfg}f2{g}e>c {gBd}B2{g}c>B | {g}A>B{g}c>d {g}e>f{g}e>c | {gfg}f2{g}B2 {GdGe}B2{gcd}c>B  |
[V:M]| {g}A2>B2 {GdG}c2a2 | {gfg}f2{g}e>c {gBd}B2{ag}a2 |{gfg}f2{g}e>c {g}e>fa>e    |{gcd}c2{e}A2  {GAG}A2    :|]
[V:M][|:{g}c>d | {g}e2>f2     {gef}e2c2 | {g}e4 {GdG}e2a2  | {gfg}f2>e2  {g}f2{ag}a2 | {gfg}f2>e2  {g}c2a2   |
[V:M]            |{gfg}f2e<c {gcd}c2B{d}A | {g}B<{e}A{g}B>{d}c {gef}e2a2 | {gfg}f2{g}e>c {g}e>fa>e    |{gcd}c2{e}A2  {GAG}A2    :|]
I:MIDI=program 10
[V:BB][K:FMix][|: z | B,2 F,2| B,2 F2 | B,2 D2 | F2 F2 |
[V:BB]      | B,2 F,2| B,2 B,2 | F,2 F,2 | B,B, B, :|]
[V:BB][|: z | B,z zB, | z2 _A2  |  B,z zB,  | z2 _A2 |
[V:BB]      | B,z zB, | z2 _A2  |  B,z _A2  | B,B, B,  :|]
[V:BB][|: B, | B,2 F2 | G2 A2  |  B,2 D2  | E2 ^E2 |
[V:BB]      | G2 B,2 | F2 E2 |E2 F2| B,B, B,:|]
[V:BB][|: z | B,2 B2 | B2 F2  |  B,2 E2  | G2 E2 |
[V:BB]      | G2 B,2 | F2 E2 |E2 F2| B,B, B,:|]
[V:BC][K:FMix][|: [B,D]/>[CE]/| [B,D]2 [B,D]2 | z[B,D] z[B,D] | z[B,D] z[B,D] | z [A,C] [A,C][B,D]/>[CE]/ | 
[V:BC]| [B,D]2 z[B,D] | z[B,D]  z[B,D] | [B,D]2 [A,C]2 | [B,D][F,B,] [F,B,] :| 
[V:BC][|: z| [B,F]z z[B,F] | z2 [C_F]2 | [B,F]z z[B,F]  | z2 [C_F]2 | 
[V:BC]     | [B,F]z z[B,F] | z2 [C_F]2 | [B,F]z [AC]2  | [B,D][FB] [FB] :| 
[V:BC][|: [dg]| [eb]3[db]  |([c'e][db])[ac]2 | [bd']2 d'b | [ae']2 [a^e']2 |
[V:BC]     | [be']4 | d'2 c'2 | c'2 d'c' | bg g :| 
[V:BC][|: z| [BD']2 [BD']2  |z[BD'] z[BD'] | z[BE'] z[BE'] | z[BE'] [BE'][Bd] |
[V:BC]     | [Be]2 z [Bd]| z[Ac] z[Ac]|[ce]2 [Ac]2 |[BD'][FB][FB] :| 
[V:BD][K:FMix][L:1/8][|: d/>e/ | d4- | d2 Bd | dd/>B/ d/>e/d/>B/ | Ac cd/>e/ |
[V:BD]     |  d4- | d2 Bd | dd/>B/ d/>e/d/>B/ | BB B :|
[V:BD][|: z| [B]z z[B] | z2 [_A]2 | [B]z z[B]  | z2 [_A]2 | 
[V:BD]     | [B]z z[B] | z2 [_A]2 | [B]z [_A]2  | [_A][B] [B] :|
[V:BD][|: z| [B]3c  |BA E2 | E>D EG | A3 B/>A/|
[V:BD]     | [B]3c  |BA E2 | G>F GA | bFB :|
[V:BD][|: z| d4- | d2 Bd | e>d eg | e>d Bg |
[V:BD]     | e2 g2 | f2 Bd |dd/>B/ d/>e/d/>B/ | BB B :|

